src/images/analitics-numbers.svg

<svg width="1128" height="20" viewBox="0 0 1128 20" fill="none" xmlns="http://www.w3.org/2000/svg">
<path d="M6.05859 7.36133C6.05859 8.63086 5.8418 9.57422 5.4082 10.1914C4.97461 10.8086 4.29688 11.1172 3.375 11.1172C2.46484 11.1172 1.79102 10.8164 1.35352 10.2148C0.916016 9.60938 0.689453 8.70703 0.673828 7.50781V6.06055C0.673828 4.80664 0.890625 3.875 1.32422 3.26562C1.75781 2.65625 2.4375 2.35156 3.36328 2.35156C4.28125 2.35156 4.95703 2.64648 5.39062 3.23633C5.82422 3.82227 6.04688 4.72852 6.05859 5.95508V7.36133ZM4.97461 5.87891C4.97461 4.96094 4.8457 4.29297 4.58789 3.875C4.33008 3.45312 3.92188 3.24219 3.36328 3.24219C2.80859 3.24219 2.4043 3.45117 2.15039 3.86914C1.89648 4.28711 1.76562 4.92969 1.75781 5.79688V7.53125C1.75781 8.45312 1.89062 9.13477 2.15625 9.57617C2.42578 10.0137 2.83203 10.2324 3.375 10.2324C3.91016 10.2324 4.30664 10.0254 4.56445 9.61133C4.82617 9.19727 4.96289 8.54492 4.97461 7.6543V5.87891Z" fill="#B6BCBF"/>
<path d="M558.069 6.72266L558.502 2.46875H562.873V3.4707H559.422L559.164 5.79688C559.582 5.55078 560.057 5.42773 560.588 5.42773C561.366 5.42773 561.983 5.68555 562.44 6.20117C562.897 6.71289 563.125 7.40625 563.125 8.28125C563.125 9.16016 562.887 9.85352 562.411 10.3613C561.938 10.8652 561.276 11.1172 560.424 11.1172C559.67 11.1172 559.055 10.9082 558.579 10.4902C558.102 10.0723 557.83 9.49414 557.764 8.75586H558.789C558.856 9.24414 559.03 9.61328 559.311 9.86328C559.592 10.1094 559.963 10.2324 560.424 10.2324C560.928 10.2324 561.323 10.0605 561.608 9.7168C561.897 9.37305 562.041 8.89844 562.041 8.29297C562.041 7.72266 561.885 7.26562 561.573 6.92188C561.264 6.57422 560.852 6.40039 560.336 6.40039C559.864 6.40039 559.493 6.50391 559.223 6.71094L558.936 6.94531L558.069 6.72266ZM570.059 7.36133C570.059 8.63086 569.842 9.57422 569.408 10.1914C568.975 10.8086 568.297 11.1172 567.375 11.1172C566.465 11.1172 565.791 10.8164 565.354 10.2148C564.916 9.60938 564.689 8.70703 564.674 7.50781V6.06055C564.674 4.80664 564.891 3.875 565.324 3.26562C565.758 2.65625 566.438 2.35156 567.363 2.35156C568.281 2.35156 568.957 2.64648 569.391 3.23633C569.824 3.82227 570.047 4.72852 570.059 5.95508V7.36133ZM568.975 5.87891C568.975 4.96094 568.846 4.29297 568.588 3.875C568.33 3.45312 567.922 3.24219 567.363 3.24219C566.809 3.24219 566.404 3.45117 566.15 3.86914C565.896 4.28711 565.766 4.92969 565.758 5.79688V7.53125C565.758 8.45312 565.891 9.13477 566.156 9.57617C566.426 10.0137 566.832 10.2324 567.375 10.2324C567.91 10.2324 568.307 10.0254 568.564 9.61133C568.826 9.19727 568.963 8.54492 568.975 7.6543V5.87891Z" fill="#B6BCBF"/>
<path d="M301.161 11H295.571V10.2207L298.524 6.93945C298.961 6.44336 299.262 6.04102 299.426 5.73242C299.594 5.41992 299.678 5.09766 299.678 4.76562C299.678 4.32031 299.543 3.95508 299.274 3.66992C299.004 3.38477 298.645 3.24219 298.196 3.24219C297.657 3.24219 297.237 3.39648 296.936 3.70508C296.639 4.00977 296.491 4.43555 296.491 4.98242H295.407C295.407 4.19727 295.659 3.5625 296.162 3.07812C296.67 2.59375 297.348 2.35156 298.196 2.35156C298.989 2.35156 299.616 2.56055 300.077 2.97852C300.537 3.39258 300.768 3.94531 300.768 4.63672C300.768 5.47656 300.233 6.47656 299.162 7.63672L296.877 10.1152H301.161V11ZM303.207 6.72266L303.641 2.46875H308.012V3.4707H304.561L304.303 5.79688C304.721 5.55078 305.195 5.42773 305.727 5.42773C306.504 5.42773 307.121 5.68555 307.578 6.20117C308.035 6.71289 308.264 7.40625 308.264 8.28125C308.264 9.16016 308.025 9.85352 307.549 10.3613C307.076 10.8652 306.414 11.1172 305.562 11.1172C304.809 11.1172 304.193 10.9082 303.717 10.4902C303.24 10.0723 302.969 9.49414 302.902 8.75586H303.928C303.994 9.24414 304.168 9.61328 304.449 9.86328C304.73 10.1094 305.102 10.2324 305.562 10.2324C306.066 10.2324 306.461 10.0605 306.746 9.7168C307.035 9.37305 307.18 8.89844 307.18 8.29297C307.18 7.72266 307.023 7.26562 306.711 6.92188C306.402 6.57422 305.99 6.40039 305.475 6.40039C305.002 6.40039 304.631 6.50391 304.361 6.71094L304.074 6.94531L303.207 6.72266Z" fill="#B6BCBF"/>
<path d="M825.079 3.07812L821.545 11H820.409L823.93 3.35938H819.313V2.46875H825.079V3.07812ZM827.207 6.72266L827.641 2.46875H832.012V3.4707H828.561L828.303 5.79688C828.721 5.55078 829.195 5.42773 829.727 5.42773C830.504 5.42773 831.121 5.68555 831.578 6.20117C832.035 6.71289 832.264 7.40625 832.264 8.28125C832.264 9.16016 832.025 9.85352 831.549 10.3613C831.076 10.8652 830.414 11.1172 829.562 11.1172C828.809 11.1172 828.193 10.9082 827.717 10.4902C827.24 10.0723 826.969 9.49414 826.902 8.75586H827.928C827.994 9.24414 828.168 9.61328 828.449 9.86328C828.73 10.1094 829.102 10.2324 829.562 10.2324C830.066 10.2324 830.461 10.0605 830.746 9.7168C831.035 9.37305 831.18 8.89844 831.18 8.29297C831.18 7.72266 831.023 7.26562 830.711 6.92188C830.402 6.57422 829.99 6.40039 829.475 6.40039C829.002 6.40039 828.631 6.50391 828.361 6.71094L828.074 6.94531L827.207 6.72266Z" fill="#B6BCBF"/>
<path d="M1110.86 11H1109.77V3.77539L1107.58 4.57812V3.59375L1110.69 2.42773H1110.86V11ZM1119.78 7.36133C1119.78 8.63086 1119.57 9.57422 1119.13 10.1914C1118.7 10.8086 1118.02 11.1172 1117.1 11.1172C1116.19 11.1172 1115.51 10.8164 1115.08 10.2148C1114.64 9.60938 1114.41 8.70703 1114.4 7.50781V6.06055C1114.4 4.80664 1114.61 3.875 1115.05 3.26562C1115.48 2.65625 1116.16 2.35156 1117.09 2.35156C1118 2.35156 1118.68 2.64648 1119.11 3.23633C1119.55 3.82227 1119.77 4.72852 1119.78 5.95508V7.36133ZM1118.7 5.87891C1118.7 4.96094 1118.57 4.29297 1118.31 3.875C1118.05 3.45312 1117.65 3.24219 1117.09 3.24219C1116.53 3.24219 1116.13 3.45117 1115.87 3.86914C1115.62 4.28711 1115.49 4.92969 1115.48 5.79688V7.53125C1115.48 8.45312 1115.61 9.13477 1115.88 9.57617C1116.15 10.0137 1116.56 10.2324 1117.1 10.2324C1117.63 10.2324 1118.03 10.0254 1118.29 9.61133C1118.55 9.19727 1118.69 8.54492 1118.7 7.6543V5.87891ZM1126.92 7.36133C1126.92 8.63086 1126.7 9.57422 1126.27 10.1914C1125.84 10.8086 1125.16 11.1172 1124.24 11.1172C1123.33 11.1172 1122.65 10.8164 1122.22 10.2148C1121.78 9.60938 1121.55 8.70703 1121.54 7.50781V6.06055C1121.54 4.80664 1121.75 3.875 1122.19 3.26562C1122.62 2.65625 1123.3 2.35156 1124.22 2.35156C1125.14 2.35156 1125.82 2.64648 1126.25 3.23633C1126.69 3.82227 1126.91 4.72852 1126.92 5.95508V7.36133ZM1125.84 5.87891C1125.84 4.96094 1125.71 4.29297 1125.45 3.875C1125.19 3.45312 1124.78 3.24219 1124.22 3.24219C1123.67 3.24219 1123.27 3.45117 1123.01 3.86914C1122.76 4.28711 1122.63 4.92969 1122.62 5.79688V7.53125C1122.62 8.45312 1122.75 9.13477 1123.02 9.57617C1123.29 10.0137 1123.69 10.2324 1124.24 10.2324C1124.77 10.2324 1125.17 10.0254 1125.43 9.61133C1125.69 9.19727 1125.82 8.54492 1125.84 7.6543V5.87891Z" fill="#B6BCBF"/>
</svg>

<svg width="1128" height="20" fill="none" xmlns="http://www.w3.org/2000/svg"><path d="M6.059 7.361c0 1.27-.217 2.213-.65 2.83-.434.618-1.112.926-2.034.926-.91 0-1.584-.3-2.021-.902-.438-.606-.665-1.508-.68-2.707V6.06c0-1.254.217-2.186.65-2.795.434-.61 1.113-.914 2.04-.914.917 0 1.593.294 2.027.884.433.586.656 1.493.668 2.72V7.36zM4.975 5.88c0-.918-.13-1.586-.387-2.004-.258-.422-.666-.633-1.225-.633-.554 0-.959.21-1.213.627-.254.418-.384 1.06-.392 1.928V7.53c0 .922.133 1.604.398 2.045.27.438.676.656 1.219.656.535 0 .932-.207 1.19-.62.261-.415.398-1.067.41-1.958V5.88zM558.069 6.723l.433-4.254h4.371V3.47h-3.451l-.258 2.326c.418-.246.893-.37 1.424-.37.778 0 1.395.259 1.852.774.457.512.685 1.205.685 2.08 0 .88-.238 1.573-.714 2.08-.473.504-1.135.756-1.987.756-.754 0-1.369-.209-1.845-.627-.477-.418-.749-.996-.815-1.734h1.025c.067.488.241.857.522 1.107.281.246.652.37 1.113.37.504 0 .899-.173 1.184-.516.289-.344.433-.819.433-1.424 0-.57-.156-1.027-.468-1.371-.309-.348-.721-.522-1.237-.522-.472 0-.843.104-1.113.31l-.287.235-.867-.222zm11.99.638c0 1.27-.217 2.213-.651 2.83-.433.618-1.111.926-2.033.926-.91 0-1.584-.3-2.021-.902-.438-.606-.665-1.508-.68-2.707V6.06c0-1.254.217-2.186.65-2.795.434-.61 1.114-.914 2.039-.914.918 0 1.594.294 2.028.884.433.586.656 1.493.668 2.72V7.36zm-1.084-1.482c0-.918-.129-1.586-.387-2.004-.258-.422-.666-.633-1.225-.633-.554 0-.959.21-1.213.627-.254.418-.384 1.06-.392 1.928V7.53c0 .922.133 1.604.398 2.045.27.438.676.656 1.219.656.535 0 .932-.207 1.189-.62.262-.415.399-1.067.411-1.958V5.88zM301.161 11h-5.59v-.78l2.953-3.28c.437-.497.738-.899.902-1.208.168-.312.252-.634.252-.966 0-.446-.135-.81-.404-1.096-.27-.285-.629-.428-1.078-.428-.539 0-.959.154-1.26.463-.297.305-.445.73-.445 1.277h-1.084c0-.785.252-1.42.755-1.904.508-.484 1.186-.726 2.034-.726.793 0 1.42.209 1.881.627.46.414.691.966.691 1.658 0 .84-.535 1.84-1.606 3l-2.285 2.478h4.284V11zm2.046-4.277l.434-4.254h4.371V3.47h-3.451l-.258 2.326c.418-.246.892-.37 1.424-.37.777 0 1.394.259 1.851.774.457.512.686 1.205.686 2.08 0 .88-.239 1.573-.715 2.08-.473.504-1.135.756-1.987.756-.753 0-1.369-.209-1.845-.627-.477-.418-.748-.996-.815-1.734h1.026c.066.488.24.857.521 1.107.281.246.653.37 1.113.37.504 0 .899-.173 1.184-.516.289-.344.434-.819.434-1.424 0-.57-.157-1.027-.469-1.371-.309-.348-.721-.522-1.236-.522-.473 0-.844.104-1.114.31l-.287.235-.867-.222zM825.079 3.078L821.545 11h-1.136l3.521-7.64h-4.617v-.891h5.766v.61zm2.128 3.645l.434-4.254h4.371V3.47h-3.451l-.258 2.326c.418-.246.892-.37 1.424-.37.777 0 1.394.259 1.851.774.457.512.686 1.205.686 2.08 0 .88-.239 1.573-.715 2.08-.473.504-1.135.756-1.987.756-.753 0-1.369-.209-1.845-.627-.477-.418-.748-.996-.815-1.734h1.026c.066.488.24.857.521 1.107.281.246.653.37 1.113.37.504 0 .899-.173 1.184-.516.289-.344.434-.819.434-1.424 0-.57-.157-1.027-.469-1.371-.309-.348-.721-.522-1.236-.522-.473 0-.844.104-1.114.31l-.287.235-.867-.222zM1110.86 11h-1.09V3.775l-2.19.803v-.984l3.11-1.166h.17V11zm8.92-3.639c0 1.27-.21 2.213-.65 2.83-.43.618-1.11.926-2.03.926-.91 0-1.59-.3-2.02-.902-.44-.606-.67-1.508-.68-2.707V6.06c0-1.254.21-2.186.65-2.795.43-.61 1.11-.914 2.04-.914.91 0 1.59.294 2.02.884.44.586.66 1.493.67 2.72V7.36zm-1.08-1.482c0-.918-.13-1.586-.39-2.004-.26-.422-.66-.633-1.22-.633-.56 0-.96.21-1.22.627-.25.418-.38 1.06-.39 1.928V7.53c0 .922.13 1.604.4 2.045.27.438.68.656 1.22.656.53 0 .93-.207 1.19-.62.26-.415.4-1.067.41-1.958V5.88zm8.22 1.482c0 1.27-.22 2.213-.65 2.83-.43.618-1.11.926-2.03.926-.91 0-1.59-.3-2.02-.902-.44-.606-.67-1.508-.68-2.707V6.06c0-1.254.21-2.186.65-2.795.43-.61 1.11-.914 2.03-.914.92 0 1.6.294 2.03.884.44.586.66 1.493.67 2.72V7.36zm-1.08-1.482c0-.918-.13-1.586-.39-2.004-.26-.422-.67-.633-1.23-.633-.55 0-.95.21-1.21.627-.25.418-.38 1.06-.39 1.928V7.53c0 .922.13 1.604.4 2.045.27.438.67.656 1.22.656.53 0 .93-.207 1.19-.62.26-.415.39-1.067.41-1.958V5.88z" fill="#B6BCBF"/></svg>
